X: 2126
T: HONble CAPn MAITLAND
C:
Q: "Strathspey."
R: Strathspey.
%R: strathspey
B: James Kerr "Merry Melodies" v.2 p.15 #126
Z: 2016 John Chambers <jc:trillian.mit.edu>
M: C
L: 1/8
K: G
uD |\
vG<GB>uG vc>vAuF>uD | G<GB<G d>GB>G |\
c<a B<g vA>vDuF>uD | G<GB>A G3 :|
|: (uB/c/) |\
d<gB<g A>DF>D | d<gB<g d<gB<g |\
c<a B<g A>DF>D | G<GB>A G3 :|
